assets/Woman white hair/Medium-Dark/Flat/woman_white_hair_flat_medium-dark.svg

<svg width="32" height="32" viewBox="0 0 32 32" fill="none" xmlns="http://www.w3.org/2000/svg">
<path fill-rule="evenodd" clip-rule="evenodd" d="M15.9998 1C13.6098 1 11.4857 2.18282 10.1928 3.97547C10.1651 3.9846 10.0998 3.99896 9.96691 4.00233C6.10306 4.10015 2.99981 7.26389 2.99981 11.1509C2.99981 12.1339 2.70701 13.0802 2.17105 13.9411C1.43617 15.0715 1 16.4051 1 17.8679C1 18.9921 1.26549 20.0222 1.69705 20.95L1.69835 20.9528C1.26461 21.8655 1 22.8966 1 24C1 27.873 4.12696 31 8 31H24C27.873 31 31 27.873 31 24C31 22.8966 30.7354 21.8656 30.3017 20.9529C31.196 19.1108 31.2232 16.9162 30.4232 15.0511C30.4188 15.0405 30.4149 15.0314 30.4118 15.0246C30.4092 15.0186 30.4072 15.0144 30.4063 15.0125L30.4061 15.0121C30.3993 14.9973 30.393 14.9847 30.3906 14.9798C30.3843 14.967 30.377 14.9528 30.3705 14.94C30.3566 14.9131 30.3377 14.8768 30.3159 14.8352C30.272 14.7514 30.2128 14.6395 30.1514 14.5243C30.0452 14.3253 29.8864 14.029 29.8185 13.925L29.8181 13.9244C29.2838 13.1072 29 12.1356 29 11.1509C29 7.20243 25.7976 4 21.8491 4C21.8369 4 21.8282 3.99854 21.8226 3.99715L21.8221 3.99648L21.8117 3.98199C20.5192 2.18566 18.3926 1 15.9998 1Z" fill="#E1D8EC"/>
<path d="M29.3962 20.5283C29.2642 20.7925 29.2642 21.1132 29.3962 21.3774C29.7736 22.1698 30 23.0566 30 24C30 27.3208 27.3208 30 24 30H8C4.67924 30 2 27.3208 2 24C2 23.0566 2.22641 22.1698 2.60377 21.3774C2.73585 21.1132 2.73585 20.7925 2.60377 20.5283C2.22641 19.717 2 18.8302 2 17.8679C2 16.6067 2.37561 15.4582 3.0144 14.4785C3.64262 13.4728 3.99981 12.3423 3.99981 11.1509C3.99981 7.80772 6.66921 5.08614 9.99222 5.00201C10.386 4.99203 10.7546 4.90934 10.9998 4.56604C12.113 3.01887 13.9432 2 15.9998 2C18.0564 2 19.8868 3.01887 21 4.56604C21.1887 4.84906 21.5094 5 21.8491 5C25.2453 5 28 7.75472 28 11.1509C28 12.3252 28.3378 13.4878 28.9811 14.4717C29.0545 14.584 29.5029 15.434 29.4993 15.434C30.1945 17.0457 30.1682 18.9476 29.3962 20.5283Z" fill="#F3EEF8"/>
<path d="M27.9998 17.9C27.9998 19.5569 26.6567 20.9 24.9998 20.9C23.343 20.9 21.9998 19.5569 21.9998 17.9C21.9998 16.2432 23.343 14.9 24.9998 14.9C26.6567 14.9 27.9998 16.2432 27.9998 17.9Z" fill="#8B5C56"/>
<path d="M10.2998 18C10.2998 19.6569 8.95666 21 7.2998 21C5.64295 21 4.2998 19.6569 4.2998 18C4.2998 16.3432 5.64295 15 7.2998 15C8.95666 15 10.2998 16.3432 10.2998 18Z" fill="#8B5C56"/>
<path d="M6.51528 15.5459H6.53824L6.51912 15.0513L6.5 14.4807C6.53824 12.7116 7.57068 12.0268 8.01042 11.7985C8.0391 11.789 8.07256 11.7747 8.10602 11.7604C8.13947 11.7462 8.17293 11.7319 8.20161 11.7224C9.19581 11.2658 9.99882 10.4669 10.4194 9.42066L10.5724 9.05923C10.7253 8.6978 11.2033 8.64073 11.4328 8.96411C12.7711 10.9234 15.0081 12.0838 17.3788 12.0838H23.3823C23.718 12.0838 25.3999 12.2467 25.5 14.5676L25.2786 20.0182C25.0487 25.2432 20.9684 28.7517 15.9878 28.7517C11.0071 28.7517 6.92683 25.2432 6.69695 20.0182L6.51528 15.5459Z" fill="#966661"/>
<path d="M15.2872 17.5266L14.2963 20.6961C14.0941 21.348 14.5794 22 15.2669 22H16.7331C17.4206 22 17.9059 21.338 17.7037 20.6961L16.7128 17.5266C16.5005 16.8245 15.5096 16.8245 15.2872 17.5266Z" fill="#75443E"/>
<path d="M16 23.3954C15.0538 23.3954 14.1644 23.1727 13.417 22.7831C13.1615 22.6532 12.8871 22.9408 13.048 23.1727C13.6724 24.1191 14.7605 24.75 16 24.75C17.2395 24.75 18.3276 24.1191 18.952 23.1727C19.1129 22.9315 18.8385 22.6532 18.583 22.7831C17.8356 23.1727 16.9556 23.3954 16 23.3954Z" fill="#990838"/>
<path d="M11.0001 15.4C12.0001 15.4 13.0251 16.2 13.5251 17C12.9263 17.1843 12.37 17.3261 11.8267 17.4645C11.1906 17.6267 10.5724 17.7843 9.92511 18L8.92509 17.3C8.52509 17 8.42511 16.5 9.02509 16.1C9.62509 15.6 10.3001 15.4 11.0001 15.4Z" fill="black"/>
<path d="M21.2001 15.4C20.2001 15.4 19.1751 16.2 18.6751 17C19.2739 17.1843 19.8302 17.3261 20.3735 17.4645C21.0096 17.6267 21.6278 17.7843 22.2751 18L23.2751 17.3C23.6751 17 23.7751 16.5 23.1751 16.1C22.5751 15.6 21.9001 15.4 21.2001 15.4Z" fill="black"/>
<path d="M9.01481 17.3673C9.30113 16.2403 10.3279 15.4 11.5423 15.4C12.8061 15.4 13.8625 16.2996 14.0994 17.4958C14.1488 17.7628 13.9415 18 13.6749 18H9.51834C9.18266 18 8.93583 17.6936 9.01481 17.3673Z" fill="white"/>
<path d="M22.9852 17.3673C22.6989 16.2403 21.6721 15.4 20.4577 15.4C19.1841 15.4 18.1375 16.2996 17.9006 17.4958C17.8512 17.7628 18.0585 18 18.3251 18H22.4817C22.8173 18 23.0642 17.6936 22.9852 17.3673Z" fill="white"/>
<path d="M10.2588 17.5568C10.2588 16.6311 11.0091 15.8925 11.9273 15.8925C12.8455 15.8925 13.586 16.6311 13.586 17.5568C13.586 17.7144 13.5663 17.8622 13.5268 18H10.318C10.2785 17.8523 10.2588 17.7144 10.2588 17.5568Z" fill="#7D4533"/>
<path d="M21.7412 17.5568C21.7412 16.6311 20.9908 15.8925 20.0726 15.8925C19.1545 15.8925 18.4041 16.6311 18.414 17.5568C18.414 17.7144 18.4337 17.8622 18.4732 18H21.682C21.7214 17.8523 21.7412 17.7144 21.7412 17.5568Z" fill="#7D4533"/>
<path d="M11.9273 16.6113C12.4506 16.6113 12.8751 17.0348 12.8751 17.5568C12.8751 17.7144 12.8356 17.8621 12.7665 18H11.0881C11.019 17.8621 10.9795 17.7144 10.9795 17.5568C10.9795 17.0348 11.404 16.6113 11.9273 16.6113Z" fill="black"/>
<path d="M20.0627 16.6113C19.5394 16.6113 19.1149 17.0348 19.1149 17.5568C19.1149 17.7144 19.1544 17.8621 19.2235 18H20.9019C20.971 17.8621 21.0105 17.7144 21.0105 17.5568C21.0105 17.0348 20.586 16.6113 20.0627 16.6113Z" fill="black"/>
<path d="M11.651 16.92C11.651 17.0857 11.5184 17.22 11.3548 17.22C11.1912 17.22 11.0586 17.0857 11.0586 16.92C11.0586 16.7543 11.1912 16.62 11.3548 16.62C11.5184 16.62 11.651 16.7543 11.651 16.92Z" fill="white"/>
<path d="M19.8456 16.92C19.8456 17.0857 19.713 17.22 19.5494 17.22C19.3858 17.22 19.2532 17.0857 19.2532 16.92C19.2532 16.7543 19.3858 16.62 19.5494 16.62C19.713 16.62 19.8456 16.7543 19.8456 16.92Z" fill="white"/>
<path d="M9.66541 14.5853L9.65723 14.59C9.42047 14.7319 9.11325 14.6552 8.97123 14.4185C8.82916 14.1817 8.90594 13.8746 9.14273 13.7325L9.14409 13.7317L9.14602 13.7305L9.15152 13.7273L9.16907 13.7171C9.18363 13.7088 9.2039 13.6974 9.22955 13.6835C9.28081 13.6558 9.35375 13.6178 9.44578 13.5739C9.6295 13.4864 9.89135 13.3742 10.2105 13.2724C10.8441 13.0702 11.7303 12.9 12.6869 13.0688C12.9588 13.1168 13.1404 13.3762 13.0924 13.6481C13.0444 13.9201 12.785 14.1016 12.5131 14.0536C11.7697 13.9224 11.0558 14.0523 10.5145 14.2251C10.2461 14.3107 10.0267 14.4048 9.87605 14.4767C9.80089 14.5125 9.74336 14.5425 9.70596 14.5628C9.68727 14.5729 9.67365 14.5806 9.66541 14.5853Z" fill="#F3EEF8"/>
<path d="M22.8569 13.7323L22.8559 13.7317L22.8539 13.7305L22.8484 13.7273L22.8309 13.7171C22.8163 13.7088 22.7961 13.6974 22.7704 13.6835C22.7191 13.6558 22.6462 13.6178 22.5542 13.5739C22.3705 13.4864 22.1086 13.3742 21.7895 13.2724C21.1558 13.0702 20.2697 12.9 19.3131 13.0688C19.0411 13.1168 18.8596 13.3762 18.9076 13.6481C18.9556 13.9201 19.2149 14.1016 19.4869 14.0536C20.2303 13.9224 20.9441 14.0523 21.4855 14.2251C21.7539 14.3107 21.9732 14.4048 22.1239 14.4767C22.1991 14.5125 22.2566 14.5425 22.294 14.5628C22.3127 14.5729 22.3263 14.5806 22.3345 14.5853L22.3428 14.59L22.3437 14.5906C22.5804 14.7318 22.8868 14.655 23.0287 14.4185C23.1708 14.1817 23.0937 13.8744 22.8569 13.7323Z" fill="#F3EEF8"/>
</svg>

<svg xmlns="http://www.w3.org/2000/svg" width="32" height="32" fill="none"><path fill="#E1D8EC" fill-rule="evenodd" d="M16 1a7.163 7.163 0 0 0-5.807 2.975.844.844 0 0 1-.226.027A7.152 7.152 0 0 0 3 11.151c0 .983-.293 1.93-.829 2.79A7.15 7.15 0 0 0 1 17.868c0 1.124.265 2.154.697 3.082l.001.003A7.084 7.084 0 0 0 1 24c0 3.873 3.127 7 7 7h16c3.873 0 7-3.127 7-7a7.084 7.084 0 0 0-.698-3.047c.894-1.842.921-4.037.121-5.902a.892.892 0 0 0-.011-.026l-.006-.013-.015-.032-.02-.04a21.497 21.497 0 0 0-.22-.416 12.233 12.233 0 0 0-.332-.599A5.083 5.083 0 0 1 29 11.15 7.152 7.152 0 0 0 21.85 4a.11.11 0 0 1-.027-.003l-.011-.015A7.163 7.163 0 0 0 16 1Z" clip-rule="evenodd"/><path fill="#F3EEF8" d="M29.396 20.528a.96.96 0 0 0 0 .85c.378.792.604 1.679.604 2.622 0 3.32-2.68 6-6 6H8c-3.32 0-6-2.68-6-6 0-.943.226-1.83.604-2.623a.96.96 0 0 0 0-.849A6.253 6.253 0 0 1 2 17.868c0-1.261.376-2.41 1.014-3.39.629-1.005.986-2.136.986-3.327a6.152 6.152 0 0 1 5.992-6.149c.394-.01.763-.093 1.008-.436A6.163 6.163 0 0 1 16 2a6.163 6.163 0 0 1 5 2.566c.189.283.51.434.85.434A6.152 6.152 0 0 1 28 11.15c0 1.175.338 2.338.981 3.322.073.112.522.962.518.962.696 1.612.67 3.514-.103 5.094Z"/><path fill="#8B5C56" d="M28 17.9a3 3 0 1 1-6 0 3 3 0 0 1 6 0ZM10.3 18a3 3 0 1 1-6 0 3 3 0 0 1 6 0Z"/><path fill="#966661" d="M6.515 15.546h.023l-.019-.495-.019-.57c.038-1.77 1.07-2.454 1.51-2.682.03-.01.063-.024.096-.039.033-.014.067-.028.096-.038a4.296 4.296 0 0 0 2.217-2.301l.153-.362a.492.492 0 0 1 .86-.095 7.201 7.201 0 0 0 5.947 3.12h6.003c.336 0 2.018.163 2.118 2.484l-.221 5.45c-.23 5.225-4.31 8.734-9.291 8.734-4.98 0-9.061-3.509-9.291-8.734l-.182-4.472Z"/><path fill="#75443E" d="m15.287 17.527-.99 3.17a1.005 1.005 0 0 0 .97 1.303h1.466c.688 0 1.173-.662.97-1.304l-.99-3.17c-.213-.701-1.203-.701-1.426 0Z"/><path fill="#990838" d="M16 23.395a5.603 5.603 0 0 1-2.583-.612c-.255-.13-.53.158-.369.39A3.53 3.53 0 0 0 16 24.75a3.53 3.53 0 0 0 2.952-1.577c.16-.241-.114-.52-.369-.39a5.574 5.574 0 0 1-2.583.612Z"/><path fill="#000" d="M11 15.4c1 0 2.025.8 2.525 1.6-.599.184-1.155.326-1.698.465-.636.162-1.255.32-1.902.535l-1-.7c-.4-.3-.5-.8.1-1.2.6-.5 1.275-.7 1.975-.7ZM21.2 15.4c-1 0-2.025.8-2.525 1.6.599.184 1.155.326 1.698.465.637.162 1.255.32 1.902.535l1-.7c.4-.3.5-.8-.1-1.2-.6-.5-1.275-.7-1.975-.7Z"/><path fill="#fff" d="M9.015 17.367a2.607 2.607 0 0 1 5.085.128.428.428 0 0 1-.425.505H9.518a.512.512 0 0 1-.503-.633ZM22.985 17.367a2.617 2.617 0 0 0-2.527-1.967 2.6 2.6 0 0 0-2.557 2.096.428.428 0 0 0 .424.504h4.157a.512.512 0 0 0 .503-.633Z"/><path fill="#7D4533" d="M10.259 17.557a1.664 1.664 0 1 1 3.268.443h-3.209a1.655 1.655 0 0 1-.06-.443ZM21.741 17.557c0-.926-.75-1.664-1.668-1.664a1.65 1.65 0 0 0-1.659 1.664c0 .157.02.305.06.443h3.208c.04-.148.06-.286.06-.443Z"/><path fill="#000" d="M11.927 16.611a.947.947 0 0 1 .84 1.389h-1.679a.947.947 0 0 1 .84-1.389ZM20.063 16.611a.947.947 0 0 0-.84 1.389h1.679a.947.947 0 0 0-.84-1.389Z"/><path fill="#fff" d="M11.651 16.92c0 .166-.133.3-.296.3a.298.298 0 0 1-.296-.3c0-.166.132-.3.296-.3.163 0 .296.134.296.3ZM19.846 16.92c0 .166-.133.3-.297.3a.298.298 0 0 1-.296-.3c0-.166.133-.3.296-.3.164 0 .297.134.297.3Z"/><path fill="#F3EEF8" d="m9.665 14.585-.008.005a.5.5 0 0 1-.514-.857l.001-.001.002-.002.006-.003.017-.01.06-.034a6.111 6.111 0 0 1 .981-.411c.634-.202 1.52-.372 2.477-.203a.5.5 0 0 1-.174.985c-.743-.132-1.457-.002-1.998.171a5.084 5.084 0 0 0-.85.36ZM22.857 13.732h-.001l-.002-.002-.006-.003-.017-.01a4.864 4.864 0 0 0-.277-.143 6.112 6.112 0 0 0-.765-.302c-.633-.202-1.52-.372-2.476-.203a.5.5 0 1 0 .174.985c.743-.132 1.457-.002 1.998.171a5.086 5.086 0 0 1 .85.36l.008.005a.5.5 0 0 0 .514-.858Z"/></svg>
